Sources/FrostedUI/Resources/Icons.xcassets/tShirt20.imageset/t-shirt-20.svg

<svg width="20" height="20" viewBox="0 0 20 20" fill="none" xmlns="http://www.w3.org/2000/svg" data-fui-icon="true">
  <path
    d="M6.94775 1.53497C7.1441 1.47218 7.36019 1.49384 7.54248 1.59552C7.74996 1.71164 7.89032 1.91929 7.92041 2.15509V2.15411C7.92059 2.15529 7.92106 2.15705 7.92139 2.159C7.92281 2.16794 7.9256 2.18477 7.93018 2.20782C7.93949 2.25472 7.95553 2.32783 7.98193 2.41681C8.03557 2.59743 8.12701 2.8329 8.27393 3.06232C8.55032 3.49363 9.03429 3.93327 9.99072 3.93341C10.9471 3.93328 11.4301 3.49358 11.7065 3.06232C11.8536 2.83281 11.9449 2.59751 11.9985 2.41681C12.025 2.32772 12.041 2.25476 12.0503 2.20782C12.0549 2.18467 12.0586 2.16797 12.0601 2.159C12.0603 2.15754 12.0599 2.15611 12.0601 2.15509C12.0901 1.91938 12.2307 1.71171 12.438 1.59552C12.646 1.47918 12.8977 1.46875 13.1147 1.5672L19.147 4.30841C19.8963 4.64898 20.2119 5.54371 19.8423 6.27911L18.5269 8.89825C18.2068 9.53491 17.4707 9.84446 16.7915 9.62872L16.4995 9.53497V17.1248C16.4995 17.8842 15.8839 18.4998 15.1245 18.4998H4.87061C4.11157 18.4994 3.49561 17.8839 3.49561 17.1248V9.53595L3.20752 9.62775C2.52826 9.84371 1.79228 9.53416 1.47217 8.89728L0.155762 6.27911C-0.21327 5.54447 0.1022 4.64965 0.850098 4.30841L6.86572 1.5672L6.94775 1.53497ZM13.2749 3.28693C13.1969 3.47063 13.0986 3.67041 12.9702 3.87091C12.4671 4.65622 11.5433 5.43327 9.99072 5.43341C8.43812 5.43326 7.51336 4.65624 7.01025 3.87091C6.88205 3.67069 6.78254 3.47137 6.70459 3.2879L1.51904 5.65021L2.79346 8.18536L4.01807 7.79572C4.24593 7.72319 4.49586 7.76408 4.68896 7.90509C4.88195 8.04627 4.99552 8.27145 4.99561 8.51056V16.9998H14.9995V8.51056C14.9996 8.27154 15.1143 8.04629 15.3071 7.90509C15.5 7.76419 15.7494 7.72355 15.9771 7.79572L17.2046 8.18536L18.479 5.65118L13.2749 3.28693Z"
    fill="currentColor"
  />
</svg>

<svg xmlns="http://www.w3.org/2000/svg" width="20" height="20" fill="none" data-fui-icon="true" viewBox="0 0 20 20"><path fill="currentColor" d="M6.948 1.535a.753.753 0 0 1 .972.62l.001.004.01.049a2.571 2.571 0 0 0 .344.855c.275.43.76.87 1.716.87s1.44-.44 1.716-.87a2.6 2.6 0 0 0 .343-.855l.01-.049v-.004a.75.75 0 0 1 1.055-.588l6.032 2.741a1.45 1.45 0 0 1 .695 1.971L18.527 8.9a1.45 1.45 0 0 1-1.736.73l-.291-.094v7.59c0 .76-.616 1.375-1.376 1.375H4.871a1.376 1.376 0 0 1-1.375-1.375v-7.59l-.288.093a1.45 1.45 0 0 1-1.736-.73L.156 6.278A1.45 1.45 0 0 1 .85 4.31l6.016-2.742zm6.327 1.752a4 4 0 0 1-.305.584c-.503.785-1.427 1.562-2.98 1.562s-2.477-.777-2.98-1.562c-.128-.2-.227-.4-.305-.583L1.519 5.65l1.274 2.535 1.225-.39a.752.752 0 0 1 .978.716V17h10.003V8.51a.752.752 0 0 1 .978-.714l1.228.39 1.274-2.535z"/></svg>
